SVG_Azure_All/Application Server.svg

<?xml version="1.0" encoding="UTF-8" standalone="no"?>
<!-- Generated by Microsoft Visio, SVG Export Application Server.svg Page-1 -->

<svg
   xmlns:dc="http://purl.org/dc/elements/1.1/"
   xmlns:cc="http://creativecommons.org/ns#"
   xmlns:rdf="http://www.w3.org/1999/02/22-rdf-syntax-ns#"
   xmlns:svg="http://www.w3.org/2000/svg"
   xmlns="http://www.w3.org/2000/svg"
   xmlns:sodipodi="http://sodipodi.sourceforge.net/DTD/sodipodi-0.dtd"
   xmlns:inkscape="http://www.inkscape.org/namespaces/inkscape"
   width="0.70872086in"
   height="0.7873655in"
   viewBox="0 0 51.027885 56.690244"
   xml:space="preserve"
   class="st7"
   version="1.1"
   id="svg111"
   sodipodi:docname="Application Server.svg"
   style="font-size:12px;overflow:visible;color-interpolation-filters:sRGB;fill:none;fill-rule:evenodd;stroke-linecap:square;stroke-miterlimit:3"
   inkscape:version="0.92.5 (2060ec1f9f, 2020-04-08)"><metadata
   id="metadata115"><rdf:RDF><cc:Work
       rdf:about=""><dc:format>image/svg+xml</dc:format><dc:type
         rdf:resource="http://purl.org/dc/dcmitype/StillImage" /></cc:Work></rdf:RDF></metadata><sodipodi:namedview
   pagecolor="#ffffff"
   bordercolor="#666666"
   borderopacity="1"
   objecttolerance="10"
   gridtolerance="10"
   guidetolerance="10"
   inkscape:pageopacity="0"
   inkscape:pageshadow="2"
   inkscape:window-width="640"
   inkscape:window-height="480"
   id="namedview113"
   showgrid="false"
   inkscape:zoom="1.3762306"
   inkscape:cx="32.70927"
   inkscape:cy="37.792659"
   inkscape:window-x="0"
   inkscape:window-y="0"
   inkscape:window-maximized="0"
   inkscape:current-layer="svg111" />
	<style
   type="text/css"
   id="style2">
	<![CDATA[
		.st1 {fill:url(#grad0-11);stroke:none;stroke-linecap:butt;stroke-width:35.9595}
		.st2 {fill:#003067;stroke:none;stroke-linecap:butt;stroke-width:35.9595}
		.st3 {fill:#50e6ff;stroke:none;stroke-linecap:butt;stroke-width:35.9595}
		.st4 {fill:url(#grad0-29);stroke:none;stroke-linecap:butt;stroke-width:33.9999}
		.st5 {fill:#005ba1;stroke:none;stroke-linecap:butt;stroke-width:33.9999}
		.st6 {fill:#f2f2f2;stroke:none;stroke-linecap:butt;stroke-width:33.9999}
		.st7 {fill:none;fill-rule:evenodd;font-size:12px;overflow:visible;stroke-linecap:square;stroke-miterlimit:3}
	]]>
	</style>

	<defs
   id="Patterns_And_Gradients">
		<linearGradient
   id="grad0-11"
   x1="-0.00033755023"
   y1="55.541558"
   x2="43.779941"
   y2="55.541558"
   gradientTransform="scale(0.77227149,1.2948814)"
   gradientUnits="userSpaceOnUse">
			<stop
   offset="0"
   stop-color="#949494"
   stop-opacity="1"
   id="stop4" />
			<stop
   offset="0.53"
   stop-color="#a2a2a2"
   stop-opacity="1"
   id="stop6" />
			<stop
   offset="1"
   stop-color="#b3b3b3"
   stop-opacity="1"
   id="stop8" />
		</linearGradient>
		<linearGradient
   id="grad0-29"
   x1="0"
   y1="143.01667"
   x2="26.382624"
   y2="143.01667"
   gradientTransform="scale(1.3171548,0.75921221)"
   gradientUnits="userSpaceOnUse">
			<stop
   offset="0"
   stop-color="#32bedd"
   stop-opacity="1"
   id="stop11" />
			<stop
   offset="0.18"
   stop-color="#32caea"
   stop-opacity="1"
   id="stop13" />
			<stop
   offset="0.41"
   stop-color="#32d2f2"
   stop-opacity="1"
   id="stop15" />
			<stop
   offset="0.78"
   stop-color="#32d4f5"
   stop-opacity="1"
   id="stop17" />
		</linearGradient>
	</defs>
	<g
   id="g109"
   transform="translate(-35.959539,-35.960231)">
		<title
   id="title21">Page-1</title>
		<g
   id="group9332-1"
   transform="translate(35.9598,-35.9595)">
			<title
   id="title23">Application Server</title>
			<g
   id="group9333-2">
				<title
   id="title25">Page-1</title>
				<g
   id="group9334-3">
					<title
   id="title27">Sheet.9334</title>
					<g
   id="group9335-4">
						<title
   id="title29">Sheet.9335</title>
						<g
   id="group9336-5">
							<title
   id="title31">Icon-databases-136.149</title>
							<g
   id="group9337-6">
								<title
   id="title33">path4-5</title>
								<g
   id="group9338-7">
									<title
   id="title35">Sheet.9338</title>
									<g
   id="shape9339-8">
										<title
   id="title37">Sheet.9339</title>
										<path
   d="m 33.81,126.68 a 1.99668,1.96687 -180 0 1 -1.96,1.93 H 1.96 A 1.96226,1.93295 -180 0 1 0,126.68 V 73.85 a 1.92783,1.89904 -180 0 1 1.96,-1.93 h 29.89 a 1.96226,1.93295 -180 0 1 1.96,1.93 z"
   class="st1"
   id="path39"
   inkscape:connector-curvature="0"
   style="fill:url(#grad0-11);stroke:none;stroke-width:35.95949936;stroke-linecap:butt" />
									</g>
								</g>
							</g>
							<g
   id="group9340-12"
   transform="translate(4.95729,-33.1992)">
								<title
   id="title44">path6-7</title>
								<g
   id="group9341-13">
									<title
   id="title46">Sheet.9341</title>
									<g
   id="shape9342-14">
										<title
   id="title48">Sheet.9342</title>
										<path
   d="m 0,124.99 a 3.68354,3.62853 -180 0 1 3.65,-3.6 h 16.87 a 3.68354,3.62853 -180 0 1 3.78,3.6 3.68354,3.62853 -180 0 1 -3.78,3.62 H 3.65 A 3.68354,3.62853 -180 0 1 0,124.99 Z m 0,-10.72 a 3.68354,3.62853 -180 0 1 3.65,-3.62 h 16.87 a 3.68354,3.62853 -180 0 1 3.78,3.62 3.68354,3.62853 -180 0 1 -3.78,3.6 H 3.65 A 3.68354,3.62853 -180 0 1 0,114.27 Z"
   class="st2"
   id="path50"
   inkscape:connector-curvature="0"
   style="fill:#003067;stroke:none;stroke-width:35.95949936;stroke-linecap:butt" />
									</g>
								</g>
							</g>
							<g
   id="group9343-16"
   transform="translate(6.33431,-45.0975)">
								<title
   id="title55">circle8-5</title>
								<g
   id="group9344-17">
									<title
   id="title57">Sheet.9344</title>
									<g
   id="shape9345-18">
										<title
   id="title59">Sheet.9345</title>
										<ellipse
   cx="2.4786401"
   cy="126.171"
   rx="2.4786401"
   ry="2.4416299"
   class="st3"
   id="ellipse61"
   style="fill:#50e6ff;stroke:none;stroke-width:35.95949936;stroke-linecap:butt" />
									</g>
								</g>
							</g>
							<g
   id="group9346-20"
   transform="translate(6.33431,-34.3816)">
								<title
   id="title66">circle10-2</title>
								<g
   id="group9347-21">
									<title
   id="title68">Sheet.9347</title>
									<g
   id="shape9348-22">
										<title
   id="title70">Sheet.9348</title>
										<ellipse
   cx="2.4786401"
   cy="126.171"
   rx="2.4786401"
   ry="2.4416299"
   class="st3"
   id="ellipse72"
   style="fill:#50e6ff;stroke:none;stroke-width:35.95949936;stroke-linecap:butt" />
									</g>
								</g>
							</g>
						</g>
					</g>
					<g
   id="group9349-24"
   transform="translate(16.2776,-0.973916)">
						<title
   id="title79">Sheet.9349</title>
						<g
   id="group9350-25">
							<title
   id="title81">Sheet.9350</title>
							<g
   id="shape9351-26">
								<title
   id="title83">Sheet.9351</title>
								<path
   d="m 0,108.58 h 34.75 v 18.9 a 1.16503,1.13624 -180 0 1 -1.17,1.13 H 1.16 A 1.16503,1.13624 -180 0 1 0,127.48 Z"
   class="st4"
   id="path85"
   inkscape:connector-curvature="0"
   style="fill:url(#grad0-29);stroke:none;stroke-width:33.99990082;stroke-linecap:butt" />
							</g>
						</g>
						<g
   id="group9352-30"
   transform="translate(0,-20.0337)">
							<title
   id="title89">Sheet.9352</title>
							<g
   id="shape9353-31">
								<title
   id="title91">Sheet.9353</title>
								<path
   d="m 1.16,121.4 h 32.42 a 1.16503,1.13624 -180 0 1 1.17,1.13 v 6.08 H 0 v -6.1 a 1.16503,1.13624 -180 0 1 1.16,-1.11 z"
   class="st5"
   id="path93"
   inkscape:connector-curvature="0"
   style="fill:#005ba1;stroke:none;stroke-width:33.99990082;stroke-linecap:butt" />
							</g>
						</g>
						<g
   id="group9354-33"
   transform="translate(4.67955,-22.1865)">
							<title
   id="title97">Sheet.9354</title>
							<g
   id="shape9355-34">
								<title
   id="title99">Sheet.9355</title>
								<path
   d="m 0,128.05 a 0.57231,0.558166 0 0 0 0.572297,0.55815 L 24.83,128.61 a 0.57231,0.558166 0 0 0 0.572297,-0.55815 L 25.4,126.26 a 0.57231,0.558166 0 0 0 -0.572297,-0.55815 L 0.57,125.7 a 0.57231,0.558166 0 0 0 -0.572297,0.55815 z"
   class="st6"
   id="path101"
   inkscape:connector-curvature="0"
   style="fill:#f2f2f2;stroke:none;stroke-width:33.99990082;stroke-linecap:butt" />
							</g>
						</g>
					</g>
				</g>
			</g>
		</g>
	</g>
</svg>

<?xml version="1.0" encoding="UTF-8" standalone="no"?>
<!DOCTYPE svg PUBLIC "-//W3C//DTD SVG 1.1//EN" "http://www.w3.org/Graphics/SVG/1.1/DTD/svg11.dtd">
<!-- Generated by Microsoft Visio, SVG Export Application Server.svg Page-1 -->
<svg xmlns="http://www.w3.org/2000/svg" xmlns:xlink="http://www.w3.org/1999/xlink" xmlns:ev="http://www.w3.org/2001/xml-events"
		width="1.68032in" height="1.78628in" viewBox="0 0 120.983 128.612" xml:space="preserve" color-interpolation-filters="sRGB"
		class="st7">
	<style type="text/css">
	<![CDATA[
		.st1 {fill:url(#grad0-11);stroke:none;stroke-linecap:butt;stroke-width:35.9595}
		.st2 {fill:#003067;stroke:none;stroke-linecap:butt;stroke-width:35.9595}
		.st3 {fill:#50e6ff;stroke:none;stroke-linecap:butt;stroke-width:35.9595}
		.st4 {fill:url(#grad0-29);stroke:none;stroke-linecap:butt;stroke-width:33.9999}
		.st5 {fill:#005ba1;stroke:none;stroke-linecap:butt;stroke-width:33.9999}
		.st6 {fill:#f2f2f2;stroke:none;stroke-linecap:butt;stroke-width:33.9999}
		.st7 {fill:none;fill-rule:evenodd;font-size:12px;overflow:visible;stroke-linecap:square;stroke-miterlimit:3}
	]]>
	</style>

	<defs id="Patterns_And_Gradients">
		<linearGradient id="grad0-11" x1="0" y1="0" x2="1" y2="0" gradientTransform="rotate(-90 0.5 0.5)">
			<stop offset="0" stop-color="#949494" stop-opacity="1"/>
			<stop offset="0.53" stop-color="#a2a2a2" stop-opacity="1"/>
			<stop offset="1" stop-color="#b3b3b3" stop-opacity="1"/>
		</linearGradient>
		<linearGradient id="grad0-29" x1="0" y1="0" x2="1" y2="0" gradientTransform="rotate(-90 0.5 0.5)">
			<stop offset="0" stop-color="#32bedd" stop-opacity="1"/>
			<stop offset="0.18" stop-color="#32caea" stop-opacity="1"/>
			<stop offset="0.41" stop-color="#32d2f2" stop-opacity="1"/>
			<stop offset="0.78" stop-color="#32d4f5" stop-opacity="1"/>
		</linearGradient>
	</defs>
	<g>
		<title>Page-1</title>
		<g id="group9127-1" transform="translate(35.9598,-35.9595)">
			<title>Application Server</title>
			<g id="group9128-2">
				<title>Page-1</title>
				<g id="group9129-3">
					<title>Sheet.9129</title>
					<g id="group9130-4">
						<title>Sheet.9130</title>
						<g id="group9131-5">
							<title>Icon-databases-136.149</title>
							<g id="group9132-6">
								<title>path4-5</title>
								<g id="group9133-7">
									<title>Sheet.9133</title>
									<g id="shape9134-8">
										<title>Sheet.9134</title>
										<path d="M33.81 126.68 A1.99668 1.96687 -180 0 1 31.85 128.61 L1.96 128.61 A1.96226 1.93295
													 -180 0 1 0 126.68 L0 73.85 A1.92783 1.89904 -180 0 1 1.96 71.92 L31.85 71.92
													 A1.96226 1.93295 -180 0 1 33.81 73.85 L33.81 126.68 Z" class="st1"/>
									</g>
								</g>
							</g>
							<g id="group9135-12" transform="translate(4.95729,-33.1992)">
								<title>path6-7</title>
								<g id="group9136-13">
									<title>Sheet.9136</title>
									<g id="shape9137-14">
										<title>Sheet.9137</title>
										<path d="M0 124.99 A3.68354 3.62853 -180 0 1 3.65 121.39 L20.52 121.39 A3.68354 3.62853 -180
													 0 1 24.3 124.99 A3.68354 3.62853 -180 0 1 20.52 128.61 L3.65 128.61 A3.68354
													 3.62853 -180 0 1 0 124.99 ZM0 114.27 A3.68354 3.62853 -180 0 1 3.65 110.65 L20.52
													 110.65 A3.68354 3.62853 -180 0 1 24.3 114.27 A3.68354 3.62853 -180 0 1 20.52
													 117.87 L3.65 117.87 A3.68354 3.62853 -180 0 1 -0 114.27 Z" class="st2"/>
									</g>
								</g>
							</g>
							<g id="group9138-16" transform="translate(6.33431,-45.0975)">
								<title>circle8-5</title>
								<g id="group9139-17">
									<title>Sheet.9139</title>
									<g id="shape9140-18">
										<title>Sheet.9140</title>
										<ellipse cx="2.47864" cy="126.171" rx="2.47864" ry="2.44163" class="st3"/>
									</g>
								</g>
							</g>
							<g id="group9141-20" transform="translate(6.33431,-34.3816)">
								<title>circle10-2</title>
								<g id="group9142-21">
									<title>Sheet.9142</title>
									<g id="shape9143-22">
										<title>Sheet.9143</title>
										<ellipse cx="2.47864" cy="126.171" rx="2.47864" ry="2.44163" class="st3"/>
									</g>
								</g>
							</g>
						</g>
					</g>
					<g id="group9144-24" transform="translate(16.2776,-0.973916)">
						<title>Sheet.9144</title>
						<g id="group9145-25">
							<title>Sheet.9145</title>
							<g id="shape9146-26">
								<title>Sheet.9146</title>
								<path d="M0 108.58 L34.75 108.58 L34.75 127.48 A1.16503 1.13624 -180 0 1 33.58 128.61 L1.16 128.61
											 A1.16503 1.13624 -180 0 1 -0 127.48 L0 108.58 Z" class="st4"/>
							</g>
						</g>
						<g id="group9147-30" transform="translate(0,-20.0337)">
							<title>Sheet.9147</title>
							<g id="shape9148-31">
								<title>Sheet.9148</title>
								<path d="M1.16 121.4 L33.58 121.4 A1.16503 1.13624 -180 0 1 34.75 122.53 L34.75 128.61 L0 128.61
											 L0 122.51 A1.16503 1.13624 -180 0 1 1.16 121.4 Z" class="st5"/>
							</g>
						</g>
						<g id="group9149-33" transform="translate(4.67955,-22.1865)">
							<title>Sheet.9149</title>
							<g id="shape9150-34">
								<title>Sheet.9150</title>
								<path d="M0 128.05 a0.57231 0.558166 0 0 0 0.572297 0.558153 L24.83 128.61 a0.57231 0.558166 0 0
											 0 0.572297 -0.558153 L25.4 126.26 a0.57231 0.558166 0 0 0 -0.572297 -0.558153 L0.57
											 125.7 a0.57231 0.558166 0 0 0 -0.572297 0.558153 L0 128.05 Z" class="st6"/>
							</g>
						</g>
					</g>
				</g>
			</g>
		</g>
	</g>
</svg>
